packages/foundations/assets/icons/functional/images/notification/bell_disabled_28.svg

<svg width="28" height="28" viewBox="0 0 28 28" fill="none" xmlns="http://www.w3.org/2000/svg">
<g clip-path="url(#clip0_187_135)">
<path fill-rule="evenodd" clip-rule="evenodd" d="M21.3901 10.934C21.5346 11.5998 21.6172 12.3141 21.6331 13.0716L21.6359 13.3438V16.625C21.6359 18.9219 22.2101 20.0703 23.8507 21.1368C24.0969 21.3009 24.2609 21.5743 24.2609 21.875C24.2609 22.3575 23.908 22.6983 23.4847 22.7446L23.3858 22.7499H18.1359C18.1359 24.6915 16.5774 26.2499 14.6359 26.2499C12.7533 26.2499 11.2307 24.7845 11.1402 22.9254L11.1359 22.7499L9.57417 22.7498L11.3235 21.0009L21.0891 21C20.2687 19.7952 19.929 18.3743 19.8897 16.9169L19.8858 16.625L19.8859 13.3438C19.8859 13.0443 19.8746 12.7538 19.8521 12.4724L21.3901 10.934ZM14.6632 1.75003C15.0949 1.75003 15.4558 2.10372 15.5052 2.5264L15.5109 2.62503V5.30472C17.2958 5.50017 18.7704 6.29777 19.8251 7.5733L22.787 4.61042C23.1287 4.26871 23.6827 4.26871 24.0244 4.61042C24.3398 4.92585 24.3924 5.48605 24.0244 5.84786C17.7556 12.1198 11.4854 18.39 5.21373 24.6585C4.87203 25.0002 4.31801 25.0002 3.9763 24.6585C3.66087 24.3431 3.60649 23.7857 3.9763 23.4211C4.79961 22.595 5.62434 21.7705 6.4505 20.9478C7.35588 19.9615 7.61069 18.6238 7.63417 16.9028L7.63602 16.625L7.63593 13.3438C7.63593 8.86875 9.92067 5.83802 13.5378 5.3325L13.7609 5.30472V2.62503C13.7609 2.16566 14.0944 1.77778 14.539 1.75044L14.6632 1.75003ZM16.3859 22.7499L12.8859 22.75C12.8859 23.7071 13.6789 24.5 14.6359 24.4999C15.593 24.5 16.3859 23.7071 16.3859 22.7499ZM14.6359 7.00003C11.4245 7.00003 9.4703 9.27883 9.3886 13.0929L9.38593 13.3438L9.38602 16.625C9.38602 17.1298 9.35163 17.6315 9.27544 18.1229L18.5848 8.81204C17.6807 7.64442 16.334 7.00003 14.6359 7.00003Z" fill="#1A1C1F"/>
</g>
<defs>
<clipPath id="clip0_187_135">
<rect width="28" height="28" fill="white"/>
</clipPath>
</defs>
</svg>

<svg xmlns="http://www.w3.org/2000/svg" width="28" height="28" fill="none"><g clip-path="url(#a)"><path fill="#1A1C1F" fill-rule="evenodd" d="M21.39 10.934q.218 1 .243 2.138l.003.272v3.281c0 2.297.574 3.445 2.215 4.512.246.164.41.437.41.738a.86.86 0 0 1-.776.87l-.1.005h-5.25a3.49 3.49 0 0 1-3.5 3.5 3.49 3.49 0 0 1-3.495-3.325l-.004-.175H9.574l1.75-1.75h9.765c-.82-1.205-1.16-2.626-1.2-4.083l-.003-.292v-3.281q0-.45-.034-.872zM14.663 1.75c.432 0 .793.354.842.776l.006.099v2.68c1.785.195 3.26.993 4.314 2.268l2.962-2.963a.875.875 0 1 1 1.237 1.237A52869 52869 0 0 1 5.214 24.66a.875.875 0 0 1-1.238 0 .873.873 0 0 1 0-1.238 923 923 0 0 1 2.475-2.473c.905-.986 1.16-2.324 1.183-4.045l.002-.278v-3.281c0-4.475 2.285-7.506 5.902-8.011l.223-.028v-2.68c0-.46.333-.847.778-.875zm1.723 21h-3.5c0 .957.793 1.75 1.75 1.75s1.75-.793 1.75-1.75M14.636 7c-3.211 0-5.166 2.279-5.247 6.093l-.003.25v3.282c0 .505-.034 1.006-.11 1.498l9.309-9.311C17.68 7.644 16.334 7 14.635 7" clip-rule="evenodd"/></g><defs><clipPath id="a"><path fill="#fff" d="M0 0h28v28H0z"/></clipPath></defs></svg>
